X: 010
M: C
L: 1/8
K: A
e2 |\
cAAA (3(cde) dc | dBBc (3(def) ed |\
cAAA a2gf | ecBc A2 :|
|: e2 |\
ac'ba bgfe | fgaf ecBA |\

